assets/svg/meditation-yoga_02.svg

<svg width="512" height="512" viewBox="0 0 512 512" fill="none" xmlns="http://www.w3.org/2000/svg">
<path d="M496 392H456V192C455.988 181.395 451.77 171.228 444.271 163.729C436.772 156.23 426.605 152.012 416 152H96C85.395 152.012 75.2278 156.23 67.7289 163.729C60.23 171.228 56.0119 181.395 56 192V392H16C13.8783 392 11.8434 392.843 10.3431 394.343C8.84285 395.843 8 397.878 8 400V432C8.01191 442.605 12.23 452.772 19.7289 460.271C27.2278 467.77 37.395 471.988 48 472H464C474.605 471.988 484.772 467.77 492.271 460.271C499.77 452.772 503.988 442.605 504 432V400C504 397.878 503.157 395.843 501.657 394.343C500.157 392.843 498.122 392 496 392ZM72 192C72.0071 185.637 74.538 179.537 79.0373 175.037C83.5367 170.538 89.637 168.007 96 168H416C422.363 168.007 428.463 170.538 432.963 175.037C437.462 179.537 439.993 185.637 440 192V392H72V192ZM292.456 408L289.456 416H221.766L219.1 408H292.456ZM488 432C487.993 438.363 485.462 444.463 480.963 448.963C476.463 453.462 470.363 455.993 464 456H48C41.637 455.993 35.5367 453.462 31.0373 448.963C26.538 444.463 24.0071 438.363 24 432V408H202.234L208.411 426.53C208.942 428.123 209.961 429.508 211.323 430.49C212.685 431.472 214.321 432 216 432H295C296.629 432 298.218 431.503 299.557 430.576C300.896 429.648 301.919 428.334 302.491 426.809L309.544 408H488V432Z" fill="#0E384A"/>
<path d="M432 376V184C432 181.878 431.157 179.843 429.657 178.343C428.157 176.843 426.122 176 424 176H88C85.8783 176 83.8434 176.843 82.3431 178.343C80.8429 179.843 80 181.878 80 184V376C80 378.122 80.8429 380.157 82.3431 381.657C83.8434 383.157 85.8783 384 88 384H424C426.122 384 428.157 383.157 429.657 381.657C431.157 380.157 432 378.122 432 376ZM416 368H96V192H416V368ZM120 416H40C37.8783 416 35.8434 416.843 34.3431 418.343C32.8429 419.843 32 421.878 32 424C32 426.122 32.8429 428.157 34.3431 429.657C35.8434 431.157 37.8783 432 40 432H120C122.122 432 124.157 431.157 125.657 429.657C127.157 428.157 128 426.122 128 424C128 421.878 127.157 419.843 125.657 418.343C124.157 416.843 122.122 416 120 416ZM152 416H144C141.878 416 139.843 416.843 138.343 418.343C136.843 419.843 136 421.878 136 424C136 426.122 136.843 428.157 138.343 429.657C139.843 431.157 141.878 432 144 432H152C154.122 432 156.157 431.157 157.657 429.657C159.157 428.157 160 426.122 160 424C160 421.878 159.157 419.843 157.657 418.343C156.157 416.843 154.122 416 152 416ZM232 120C232 124.747 233.408 129.387 236.045 133.334C238.682 137.28 242.43 140.357 246.816 142.173C251.201 143.99 256.027 144.465 260.682 143.539C265.338 142.613 269.614 140.327 272.971 136.971C276.327 133.614 278.613 129.338 279.539 124.682C280.465 120.027 279.99 115.201 278.173 110.816C276.357 106.43 273.28 102.682 269.334 100.045C265.387 97.4076 260.747 96 256 96C249.637 96.0071 243.537 98.538 239.037 103.037C234.538 107.537 232.007 113.637 232 120ZM264 120C264 121.582 263.531 123.129 262.652 124.445C261.773 125.76 260.523 126.786 259.061 127.391C257.6 127.997 255.991 128.155 254.439 127.846C252.887 127.538 251.462 126.776 250.343 125.657C249.224 124.538 248.462 123.113 248.154 121.561C247.845 120.009 248.003 118.4 248.609 116.939C249.214 115.477 250.24 114.227 251.555 113.348C252.871 112.469 254.418 112 256 112C258.121 112.002 260.154 112.846 261.654 114.346C263.154 115.846 263.998 117.879 264 120V120Z" fill="#0E384A"/>
<path d="M295.191 95.9995C296.78 95.9997 298.334 95.5265 299.653 94.6404C300.972 93.7542 301.998 92.4952 302.598 91.0239C303.199 89.5526 303.348 87.9356 303.026 86.3793C302.704 84.823 301.926 83.3978 300.791 82.2856C288.829 70.5644 272.748 63.9995 256 63.9995C239.252 63.9995 223.172 70.5644 211.209 82.2856C210.459 83.021 209.861 83.897 209.449 84.8635C209.037 85.8301 208.82 86.8683 208.809 87.9189C208.798 88.9695 208.995 90.0119 209.387 90.9866C209.779 91.9613 210.36 92.8492 211.095 93.5995C211.831 94.3499 212.707 94.9481 213.673 95.3599C214.64 95.7718 215.678 95.9892 216.729 95.9998C217.779 96.0103 218.822 95.8139 219.796 95.4216C220.771 95.0294 221.659 94.4489 222.409 93.7135C231.381 84.9229 243.441 79.9993 256.002 79.9993C268.563 79.9993 280.623 84.9229 289.595 93.7135C291.088 95.1807 293.098 96.0018 295.191 95.9995V95.9995Z" fill="#0E384A"/>
<path d="M201.094 69.8168C215.942 55.8047 235.585 47.9994 256.001 47.9994C276.417 47.9994 296.06 55.8047 310.908 69.8168C312.452 71.2668 314.508 72.0453 316.625 71.9817C318.742 71.918 320.747 71.0174 322.201 69.4773C323.656 67.9372 324.439 65.8833 324.381 63.766C324.323 61.6487 323.428 59.6409 321.892 58.1828C304.074 41.3668 280.501 31.9995 256.001 31.9995C231.501 31.9995 207.928 41.3668 190.11 58.1828C188.574 59.6409 187.678 61.6487 187.62 63.766C187.562 65.8833 188.346 67.9372 189.8 69.4773C191.254 71.0174 193.26 71.918 195.377 71.9817C197.494 72.0453 199.55 71.2668 201.094 69.8168V69.8168ZM236.101 310.983C237.343 311.677 238.748 312.027 240.171 311.997C241.594 311.968 242.984 311.559 244.196 310.813L283.196 286.813C284.359 286.097 285.32 285.095 285.986 283.902C286.653 282.709 287.003 281.366 287.003 280C287.003 278.634 286.653 277.29 285.986 276.098C285.32 274.905 284.359 273.903 283.196 273.187L244.196 249.187C242.984 248.44 241.594 248.031 240.171 248C238.747 247.97 237.342 248.32 236.099 249.015C234.856 249.709 233.821 250.722 233.101 251.95C232.38 253.178 232.001 254.576 232.001 256V304C232.001 305.423 232.381 306.821 233.102 308.048C233.823 309.276 234.858 310.289 236.101 310.983ZM248.001 270.316L263.737 280L248.001 289.684V270.316Z" fill="#0E384A"/>
<path d="M256 344C268.658 344 281.032 340.246 291.556 333.214C302.081 326.182 310.284 316.186 315.128 304.492C319.972 292.797 321.24 279.929 318.77 267.514C316.301 255.099 310.205 243.696 301.255 234.745C292.304 225.795 280.901 219.699 268.486 217.23C256.071 214.76 243.203 216.028 231.508 220.872C219.814 225.716 209.818 233.919 202.786 244.444C195.754 254.968 192 267.342 192 280C192.019 296.968 198.768 313.236 210.766 325.234C222.764 337.232 239.032 343.981 256 344V344ZM256 232C265.494 232 274.774 234.815 282.667 240.089C290.561 245.364 296.713 252.86 300.346 261.631C303.979 270.402 304.93 280.053 303.078 289.364C301.226 298.675 296.654 307.228 289.941 313.941C283.228 320.654 274.675 325.226 265.364 327.078C256.053 328.93 246.402 327.979 237.631 324.346C228.86 320.713 221.364 314.561 216.089 306.667C210.815 298.774 208 289.494 208 280C208.015 267.274 213.076 255.074 222.075 246.075C231.074 237.076 243.274 232.015 256 232V232Z" fill="#0E384A"/>
</svg>

<svg width="512" height="512" fill="none" xmlns="http://www.w3.org/2000/svg"><path d="M496 392h-40V192a40.045 40.045 0 00-40-40H96a40.045 40.045 0 00-40 40v200H16a8.001 8.001 0 00-8 8v32a40.045 40.045 0 0040 40h416a40.045 40.045 0 0040-40v-32a8 8 0 00-8-8zM72 192a24.029 24.029 0 0124-24h320a24.03 24.03 0 0124 24v200H72V192zm220.456 216l-3 8h-67.69l-2.666-8h73.356zM488 432a24.03 24.03 0 01-24 24H48a24.028 24.028 0 01-24-24v-24h178.234l6.177 18.53A8.002 8.002 0 00216 432h79a8.005 8.005 0 007.491-5.191L309.544 408H488v24z" fill="#0E384A"/><path d="M432 376V184a8 8 0 00-8-8H88a8.001 8.001 0 00-8 8v192a8 8 0 008 8h336a8 8 0 008-8zm-16-8H96V192h320v176zm-296 48H40a8.001 8.001 0 00-5.657 13.657A8.001 8.001 0 0040 432h80a8 8 0 100-16zm32 0h-8a8 8 0 100 16h8a8 8 0 100-16zm80-296a24.002 24.002 0 0028.682 23.539 24.005 24.005 0 0018.857-18.857 23.995 23.995 0 00-10.205-24.637A24 24 0 00256 96a24.03 24.03 0 00-24 24zm32 0a8.003 8.003 0 01-4.939 7.391 7.992 7.992 0 01-4.622.455 7.993 7.993 0 01-6.285-6.285A8 8 0 01256 112a8.007 8.007 0 018 8z" fill="#0E384A"/><path d="M295.191 96a8.001 8.001 0 005.6-13.714 63.998 63.998 0 00-89.582 0 8.009 8.009 0 00-2.4 5.633 7.998 7.998 0 007.92 8.08 7.998 7.998 0 005.68-2.285 48 48 0 0167.186 0 7.971 7.971 0 005.596 2.285z" fill="#0E384A"/><path d="M201.094 69.817a80 80 0 01109.814 0 8 8 0 0010.984-11.634 96 96 0 00-131.782 0 8.001 8.001 0 0010.984 11.634zm35.007 241.166a7.998 7.998 0 008.095-.17l39-24a7.996 7.996 0 003.807-6.813 7.996 7.996 0 00-3.807-6.813l-39-24a8.004 8.004 0 00-8.097-.172 7.99 7.99 0 00-4.098 6.985v48a8 8 0 004.1 6.983zm11.9-40.667L263.737 280l-15.736 9.684v-19.368z" fill="#0E384A"/><path d="M256 344a64 64 0 10-64-64 64.073 64.073 0 0064 64zm0-112a47.998 47.998 0 0133.941 81.941A48 48 0 01208 280a48.056 48.056 0 0148-48z" fill="#0E384A"/></svg>
